components/Common/Svg/svgs/penTool.svg

<svg width="40" height="40" viewBox="0 0 40 40" fill="none" xmlns="http://www.w3.org/2000/svg">
<path fill-rule="evenodd" clip-rule="evenodd" d="M3.4107 2.3363C3.46954 2.34083 3.52807 2.35054 3.58552 2.36545L27.7348 8.19458C28.1133 8.28595 28.4044 8.58873 28.4807 8.97055L30.6143 19.6382L30.9596 19.2929C31.3501 18.9024 31.9832 18.9024 32.3738 19.2929L37.3738 24.2929C37.7643 24.6834 37.7643 25.3166 37.3738 25.7071L25.7071 37.3738C25.3166 37.7643 24.6834 37.7643 24.2929 37.3738L19.2929 32.3738C18.9024 31.9833 18.9024 31.3501 19.2929 30.9596L19.6383 30.6141L8.97071 28.4806C8.58889 28.4042 8.28611 28.1132 8.19475 27.7346L2.36561 3.58536C2.35071 3.5279 2.34099 3.46938 2.33646 3.41053C2.31483 3.12953 2.41148 2.84114 2.62639 2.62623C2.80346 2.44916 3.03041 2.35237 3.26201 2.33588C3.31127 2.33234 3.36097 2.33244 3.4107 2.3363ZM14.6444 16.0585L5.13951 6.55356L9.98908 26.6446L21.338 28.9144L28.9146 21.3379L26.6448 9.98892L6.55373 5.13935L16.0587 14.6443C16.7198 14.2358 17.4991 14 18.3333 14C20.7266 14 22.6667 15.9401 22.6667 18.3333C22.6667 20.7266 20.7266 22.6667 18.3333 22.6667C15.9401 22.6667 14 20.7266 14 18.3333C14 17.499 14.2358 16.7197 14.6444 16.0585ZM16.6626 16.7045C16.2526 17.125 16 17.6996 16 18.3333C16 19.622 17.0447 20.6667 18.3333 20.6667C19.622 20.6667 20.6667 19.622 20.6667 18.3333C20.6667 17.0447 19.622 16 18.3333 16C17.6997 16 17.1251 16.2526 16.7046 16.6625C16.6978 16.6697 16.6909 16.6768 16.6839 16.6838C16.6769 16.6908 16.6698 16.6977 16.6626 16.7045ZM22.3631 30.7177L22.3739 30.7071L30.7073 22.3738L30.7179 22.363L31.6667 21.4142L35.2525 25L25 35.2525L21.4142 31.6667L22.3631 30.7177Z" fill="#161616"/>
</svg>

<svg width="40" height="40" viewBox="0 0 40 40" fill="none" xmlns="http://www.w3.org/2000/svg"><path fill-rule="evenodd" clip-rule="evenodd" d="M3.41 2.336c.06.005.118.015.176.03l24.149 5.829a1 1 0 0 1 .746.776l2.133 10.667.346-.345a1 1 0 0 1 1.414 0l5 5a1 1 0 0 1 0 1.414L25.707 37.374a1 1 0 0 1-1.414 0l-5-5a1 1 0 0 1 0-1.414l.345-.346-10.667-2.133a1 1 0 0 1-.776-.746l-5.83-24.15a1.003 1.003 0 0 1 .261-.959.996.996 0 0 1 .785-.29ZM14.645 16.06 5.14 6.553l4.85 20.09 11.348 2.27 7.577-7.576-2.27-11.35L6.554 5.14l9.505 9.505a4.333 4.333 0 1 1-1.414 1.414Zm2.019.645a2.333 2.333 0 1 0 3.342 3.258 2.333 2.333 0 0 0-3.342-3.258Zm5.7 14.014.01-.01 8.334-8.334.01-.011.95-.949L35.252 25 25 35.252l-3.586-3.585.95-.95Z" fill="#161616"/></svg>
